X: 18986
T: Inishowen
R: jig
M: 6/8
K: Eminor
|:EGB EGB|cBA BGE|EGB BAG|FAA AGF|
EGA BAG|cBA BGE|GBB BAG|1 FGF E3:|2 FGF E2B||
|:eBB dBB|cBA B2B|edc dcB|ABc B2B|
edc dcB|ABc B2B|GBB BAG|1 FGF E2B:|2 FGF E3||

